icons/babel.svg

<svg xmlns="http://www.w3.org/2000/svg" viewBox="0 0 16 16"><path fill="#f59f29" d="M6.077 2a12 12 0 0 1-1.359.9l.006.092a.4.4 0 0 0 .134-.055.073.073 0 0 1 .093.079l.093-.055.047-.006L5.1 3a5.3 5.3 0 0 1-.951.776l.051.084-.047.006-.1-.037c0 .031-.041.049-.134.055l.006.049.1.122a.4.4 0 0 1-.14-.031.91.91 0 0 0-.607.471l.058.086a1.3 1.3 0 0 1 .3-.251l.015.135a.4.4 0 0 0-.134.055l.11.171a3.3 3.3 0 0 1 .694-.6.21.21 0 0 1 .192.122l.094-.013a7.3 7.3 0 0 1 2.03-1.149l.006.094a.7.7 0 0 1-.257.3.4.4 0 0 0 .064.177 17 17 0 0 1-.91 2.414A70 70 0 0 1 2 13.711a.4.4 0 0 0 .052.134 1.2 1.2 0 0 0 .448-.177l.052-.006.008.091.087-.006.093-.055c0 .03.035.043.093.037l.007.092a.85.85 0 0 1-.152.422 2.3 2.3 0 0 0-.309.715l.006.042.087-.006a6 6 0 0 0 .869-1.314 13.6 13.6 0 0 0 2.549-1.008 2.33 2.33 0 0 0 1.347-.483l-.005-.049-.222.067-.052.006-.006-.049a1.96 1.96 0 0 0 .9-.306c.848-.683 1.479-1.166 1.911-1.458 1.336-1.027 1.966-2.017 1.89-2.958a5.5 5.5 0 0 0-.881-1.155 1.02 1.02 0 0 1 .6-.556l1.161-1.069A3.27 3.27 0 0 0 13 2.98l-.017-.18a1.68 1.68 0 0 0-1.131-1.32A4.2 4.2 0 0 0 9.594 1a13.3 13.3 0 0 0-3.517 1m6.252.079-.035.092L11 1.6q1.295.055 1.33.477ZM7.092 5.846a1.5 1.5 0 0 1 .3-.856l.965-2.279q-.018-.213.619-.324l.14-.012.011.125c.42-.064.673-.1.773-.113.77-.067 1.166.092 1.2.489l.088-.006-.018-.232.093-.006a.6.6 0 0 1 .362.477.73.73 0 0 1-.2.477q-.088.009-.1-.128l-.093.006-.023.275a2.05 2.05 0 0 1-.846.941 1.1 1.1 0 0 1-.3.348 5.4 5.4 0 0 1-1 .782 12.7 12.7 0 0 0-2.012.819.3.3 0 0 0-.181-.029l-.006-.088a1.17 1.17 0 0 1 .227-.666Zm5.36-2.811.006.085a.84.84 0 0 1-.258-.433l-.011-.087a.51.51 0 0 1 .263.434ZM3.936 4.123l.006.042a.4.4 0 0 0-.134.055l-.047.006-.005-.085Zm2.817-.073.012.134a.36.36 0 0 0-.169.2l-.006-.096a.46.46 0 0 0 .122-.238zM6.322 5l.017.186-.047.006-.017-.183Zm-.111.33c-.011.155-.047.235-.122.241l-.047.006a.5.5 0 0 0 .076-.232Zm-.192.477.005.045L5.943 6h-.088l-.006-.038a.12.12 0 0 0 .122-.147Zm-.2.428-.019.228-.05.006-.017-.226Zm4.731.165.193.122a.085.085 0 0 1-.082.1.4.4 0 0 0-.192-.079l-.012-.134Zm-3.7.519.003.088-.181.018-.006-.085Zm2.983.32a.31.31 0 0 1 .2.171l.006.043a.38.38 0 0 1-.338-.2Zm-3.849.99a10 10 0 0 0 2.479-.77l.274-.024a1.54 1.54 0 0 1 1.277.342l.017.183a1.83 1.83 0 0 1-.694 1.118l-1.166.972a11 11 0 0 1-1.406.9 10.2 10.2 0 0 1-2.578 1.25h-.052c.047-.171.659-1.491 1.849-3.972Zm1.26-.519.005.043-.187.018-.005-.043Zm4.188-.2.028.365a.19.19 0 0 1-.128.147l-.052-.636a.22.22 0 0 1 .152.128Zm-7.1 3.153a.65.65 0 0 1-.187.477l-.004-.04a.53.53 0 0 1 .192-.434ZM5.5 12.391a14.7 14.7 0 0 0 2.788-1.528l.006.086a1.3 1.3 0 0 1-.394.351 7 7 0 0 0-1.365.813 3.5 3.5 0 0 0-1.248.568 14 14 0 0 0-1.47.678.5.5 0 0 1-.236-.059.41.41 0 0 1 .2-.391.7.7 0 0 1 .373.061 3.5 3.5 0 0 1 .723-.245l-.006-.092-.271.02a4 4 0 0 1 .8-.391l.14-.012.006.043a.38.38 0 0 0-.4.226.077.077 0 0 0 .093.079 1.1 1.1 0 0 0 .261-.207m-1.435-1.106.006.043a.085.085 0 0 1-.082.1l-.006-.043a.09.09 0 0 1 .082-.1m2.181.623a2 2 0 0 0-.624.287l-.047.005-.006-.09a.87.87 0 0 0 .572-.275.078.078 0 0 1 .1.073Zm-2.263.66.14-.012.006.044a.4.4 0 0 0-.134.055l-.087.006a.09.09 0 0 1 .076-.1Zm-.927.544.1.043c-.035.275-.111.416-.245.428a.6.6 0 0 0-.286-.061l-.012-.135a.094.094 0 0 1 .087-.1q.088-.009.1.128a2 2 0 0 1 .257-.3Z" data-iconColor="Babel"/></svg>

<!--
  - The MIT License (MIT)
  -
  - Copyright (c) 2015-2024 Elior "Mallowigi" Boukhobza
  -
  - Permission is hereby granted, free of charge, to any person obtaining a copy
  - of this software and associated documentation files (the "Software"), to deal
  - in the Software without restriction, including without limitation the rights
  - to use, copy, modify, merge, publish, distribute, sublicense, and/or sell
  - copies of the Software, and to permit persons to whom the Software is
  - furnished to do so, subject to the following conditions:
  -
  - The above copyright notice and this permission notice shall be included in all
  - copies or substantial portions of the Software.
  -
  - THE SOFTWARE IS PROVIDED "AS IS", WITHOUT WARRANTY OF ANY KIND, EXPRESS OR
  - IMPLIED, INCLUDING BUT NOT LIMITED TO THE WARRANTIES OF MERCHANTABILITY,
  - FITNESS FOR A PARTICULAR PURPOSE AND NONINFRINGEMENT. IN NO EVENT SHALL THE
  - AUTHORS OR COPYRIGHT HOLDERS BE LIABLE FOR ANY CLAIM, DAMAGES OR OTHER
  - LIABILITY, WHETHER IN AN ACTION OF CONTRACT, TORT OR OTHERWISE, ARISING FROM,
  - OUT OF OR IN CONNECTION WITH THE SOFTWARE OR THE USE OR OTHER DEALINGS IN THE
  - SOFTWARE.
  -
  -->

<svg  xmlns="http://www.w3.org/2000/svg" width="16px" height="16px" viewBox="0 0 16 16">
  <path fill="#F59F29" data-iconColor="Babel"
        d="M6.077,2a12.4,12.4,0,0,1-1.359.9L4.724,2.992a0.354,0.354,0,0,0,.134-0.055,0.073,0.073,0,0,1,.093.079l0.093-.055,0.047-.006L5.1,3a5.289,5.289,0,0,1-.951.776L4.2,3.86l-0.047.006-0.1-.037c0,0.031-.041.049-0.134,0.055L3.925,3.933l0.1,0.122a0.358,0.358,0,0,1-.14-0.031,0.91,0.91,0,0,0-.607.471L3.336,4.581a1.253,1.253,0,0,1,.3-0.251L3.651,4.465a0.394,0.394,0,0,0-.134.055L3.627,4.691a3.3,3.3,0,0,1,.694-0.6,0.213,0.213,0,0,1,.192.122L4.607,4.2a7.3,7.3,0,0,1,2.03-1.149L6.643,3.145a0.7,0.7,0,0,1-.257.3,0.381,0.381,0,0,0,.064.177,16.864,16.864,0,0,1-.91,2.414A69.478,69.478,0,0,1,2,13.711a0.372,0.372,0,0,0,.052.134A1.19,1.19,0,0,0,2.5,13.668l0.052-.006L2.56,13.753l0.087-.006,0.093-.055c0,0.03.035,0.043,0.093,0.037L2.84,13.821a0.846,0.846,0,0,1-.152.422,2.249,2.249,0,0,0-.309.715L2.385,15l0.087-.006a5.889,5.889,0,0,0,.869-1.314A13.578,13.578,0,0,0,5.89,12.672a2.326,2.326,0,0,0,1.347-.483L7.232,12.14l-0.222.067-0.052.006-0.006-.049a1.962,1.962,0,0,0,.9-0.306C8.7,11.175,9.331,10.692,9.763,10.4c1.336-1.027,1.966-2.017,1.89-2.958a5.5,5.5,0,0,0-.881-1.155,1.024,1.024,0,0,1,.6-0.556l1.161-1.069A3.267,3.267,0,0,0,13,2.98L12.983,2.8a1.675,1.675,0,0,0-1.131-1.32A4.225,4.225,0,0,0,9.594,1,13.315,13.315,0,0,0,6.077,2h0Zm6.252,0.079-0.035.092L11,1.6q1.295,0.055,1.33.477h0ZM7.092,5.846a1.516,1.516,0,0,1,.3-0.856L8.357,2.711C8.346,2.57,8.55,2.46,8.976,2.387l0.14-.012L9.127,2.5C9.547,2.436,9.8,2.4,9.9,2.387c0.77-.067,1.166.092,1.2,0.489l0.088-.006-0.018-.232,0.093-.006a0.605,0.605,0,0,1,.362.477,0.732,0.732,0,0,1-.2.477c-0.058.006-.093-0.037-0.1-0.128l-0.093.006-0.023.275a2.048,2.048,0,0,1-.846.941,1.1,1.1,0,0,1-.3.348,5.37,5.37,0,0,1-1,.782,12.71,12.71,0,0,0-2.012.819A0.32,0.32,0,0,0,6.87,6.6L6.864,6.512a1.167,1.167,0,0,1,.227-0.666h0Zm5.36-2.811L12.458,3.12A0.835,0.835,0,0,1,12.2,2.687L12.189,2.6a0.513,0.513,0,0,1,.263.434h0ZM3.936,4.123L3.942,4.165a0.4,0.4,0,0,0-.134.055l-0.047.006L3.756,4.141Zm2.817-.073L6.765,4.184a0.358,0.358,0,0,0-.169.2L6.59,4.288a0.462,0.462,0,0,0,.122-0.238H6.753ZM6.322,5L6.339,5.186l-0.047.006L6.275,5.009Zm-0.111.33C6.2,5.485,6.164,5.565,6.089,5.571l-0.047.006a0.483,0.483,0,0,0,.076-0.232Zm-0.192.477L6.024,5.852,5.943,6,5.855,6,5.849,5.962a0.12,0.12,0,0,0,.122-0.147Zm-0.2.428L5.8,6.463,5.75,6.469,5.733,6.243ZM10.55,6.4l0.193,0.122a0.085,0.085,0,0,1-.082.1,0.379,0.379,0,0,0-.192-0.079l-0.012-.134Zm-3.7.519L6.853,7.007l-0.181.018L6.666,6.94ZM9.833,7.239a0.312,0.312,0,0,1,.2.171l0.006,0.043a0.378,0.378,0,0,1-.338-0.2Zm-3.849.99a9.9,9.9,0,0,0,2.479-.77l0.274-.024a1.536,1.536,0,0,1,1.277.342L10.031,7.96a1.829,1.829,0,0,1-.694,1.118l-1.166.972a11.3,11.3,0,0,1-1.406.9A10.2,10.2,0,0,1,4.187,12.2L4.135,12.2c0.047-.171.659-1.491,1.849-3.972h0Zm1.26-.519L7.249,7.753l-0.187.018L7.057,7.728Zm4.188-.2L11.46,7.875a0.186,0.186,0,0,1-.128.147L11.28,7.386a0.215,0.215,0,0,1,.152.128h0Zm-7.1,3.153a0.65,0.65,0,0,1-.187.477L4.141,11.1a0.532,0.532,0,0,1,.192-0.434h0ZM5.5,12.391a14.7,14.7,0,0,0,2.788-1.528l0.006,0.086A1.3,1.3,0,0,1,7.9,11.3a7.016,7.016,0,0,0-1.365.813,3.535,3.535,0,0,0-1.248.568,13.712,13.712,0,0,0-1.47.678A0.518,0.518,0,0,1,3.581,13.3a0.412,0.412,0,0,1,.2-0.391,0.711,0.711,0,0,1,.373.061,3.485,3.485,0,0,1,.723-0.245l-0.006-.092L4.6,12.653a3.854,3.854,0,0,1,.8-0.391l0.14-.012,0.006,0.043a0.379,0.379,0,0,0-.4.226,0.077,0.077,0,0,0,.093.079A1.14,1.14,0,0,0,5.5,12.391h0ZM4.065,11.285l0.006,0.043a0.085,0.085,0,0,1-.082.1l-0.006-.043a0.09,0.09,0,0,1,.082-0.1h0Zm2.181,0.623a2.021,2.021,0,0,0-.624.287L5.575,12.2,5.569,12.11a0.869,0.869,0,0,0,.572-0.275,0.078,0.078,0,0,1,.1.073h0Zm-2.263.66,0.14-.012L4.129,12.6a0.355,0.355,0,0,0-.134.055l-0.087.006a0.089,0.089,0,0,1,.076-0.1h0Zm-0.927.544,0.1,0.043c-0.035.275-.111,0.416-0.245,0.428a0.574,0.574,0,0,0-.286-0.061l-0.012-.135a0.094,0.094,0,0,1,.087-0.1c0.058-.006.093,0.037,0.1,0.128a1.972,1.972,0,0,1,.257-0.3h0Z"
  />
</svg>
